icons/code-box-fill.svg

<svg xmlns="http://www.w3.org/2000/svg" width="24" height="24" fill="none"><g clip-path="url(#a)"><g><path fill="#121212" d="M3 3H21C21.2652 3 21.5196 3.10536 21.7071 3.29289C21.8946 3.48043 22 3.73478 22 4V20C22 20.2652 21.8946 20.5196 21.7071 20.7071C21.5196 20.8946 21.2652 21 21 21H3C2.73478 21 2.48043 20.8946 2.29289 20.7071C2.10536 20.5196 2 20.2652 2 20V4C2 3.73478 2.10536 3.48043 2.29289 3.29289C2.48043 3.10536 2.73478 3 3 3ZM16.464 15.536L20 12L16.464 8.464L15.05 9.88L17.172 12L15.05 14.121L16.464 15.536ZM6.828 12L8.95 9.879L7.536 8.464L4 12L7.536 15.536L8.95 14.12L6.828 12ZM11.244 17L14.884 7H12.756L9.116 17H11.244Z"/></g></g><defs><clipPath id="a"><rect width="24" height="24" fill="white"/></clipPath></defs></svg>

<svg width="24" height="24" fill="none" xmlns="http://www.w3.org/2000/svg"><g clip-path="url(#a)"><path d="M3 3h18a1 1 0 0 1 1 1v16a1 1 0 0 1-1 1H3a1 1 0 0 1-1-1V4a1 1 0 0 1 1-1Zm13.464 12.536L20 12l-3.536-3.536L15.05 9.88 17.172 12l-2.122 2.121 1.414 1.415ZM6.828 12 8.95 9.879 7.536 8.464 4 12l3.536 3.536L8.95 14.12 6.828 12Zm4.416 5 3.64-10h-2.128l-3.64 10h2.128Z" /></g><defs><clipPath id="a"><path fill="#fff" d="M0 0h24v24H0z"/></clipPath></defs></svg>
